X: 121
T: Cantantibus organis – Larghetto
C: Franciszek Walczyński
%%abc-version 2.0
%%abcx-abcm2ps-target-version 5.9.1 (29 Sep 2008)
%%abc-creator hum2abc beta
%%abcx-conversion-date 2021/10/04 07:38:41
%%abc-edited-by Kamil Watkowski
%%abcx-initial-encoding-date 2021-08-09
%%humdrum-veritas 2463324819
%%humdrum-veritas-data 2440841926
%%linebreak <none>
%%barnumbers 0
L: 1/4
M: C
N: Derived from pl-kozmzk--mzk-m-346--023_walczynski-franciszek--cantantibus-organis-larghetto.krn
%%staves {1 2}
V: 1 clef=treble
V: 2 clef=bass
K: A
[V:1] z4 & z2AG | 
[V:2] A,G,F,E, & z4 | 
[V:1] dcBA & F/^G/AGF- | 
[V:2] D,E,^E,F, & z4 | 
[V:1] BAG2 & F2E2 | 
[V:2] D=CB,2 & D,^D,E,=D, | 
[V:1] edc2 & E4 | 
[V:2] A,G,A,2 & C,B,,A,,=G, | 
[V:1] dcBA & DEF2 | 
[V:2] A,^A,B,2 & F,2D,^D, | 
[V:1] cBAG & E/F/GE3/D/ | 
[V:2] =A,E/D/ C/=C/B, & E,4 | 
[V:1] A4- & C2DC | 
[V:2] A,G,F,E, & A,,4- | 
[V:1] !fermata!A4 & B,C/D/!fermata!C2 |]  
[V:2] D,E,/F,/!fermata!E,2 & !fermata!A,,4 |]  


